X: 17206
T: Henry's
R: jig
M: 6/8
K: Gmajor
D|:"G"EDB, DGB|ded BAB|"Am"AGA "Em"BGE|"G"DB,C ~D3|
"G"EDB, DGB|ded BAB|"D"AGA BGF|1 "G"GFE ~D3:|2 "G"GFD G2B||
|:"G"dBd edB|dBd dBG|"Am"AGA "Em"BGE|"G"DB,D G2B|
"G"dBd edB|dBd dBG|1 "Am"AGA "Em"BGE|"G"GFD G2B:|2 "D"AGA AGF|"G"GFE ~D3||

